X: 33194
T: Promise Of Spring, The
R: jig
M: 6/8
K: Gmajor
|:dBG AGE|GB/c/d ~g2e|dBG AGA|BGE E2e|
dBG AGE|GB/c/d gba|gfe dBA|1 BGG G2e:|2 BGG G2a||
|:bag agf|gfe def|gfe edB|BAG A2a|
bgb afa|gfe def|gfe dBA|1 BGG G2a:|2 BGG G2e||

